!!!!SEGMENT: pl-wn--sd-xvi-qu-273--114_gomolka-mikolaj--na-ten-czas-gdy-zydowie-dostawszy-swobody.krn
!!!cenid: 15xx:319
!!!COM: Gomółka, Mikołaj
!!!COM-rismid: pe30013343
!!!CDT: ~1535->1591/04/30
!!!CNT: Polish
!!!GTL: Melodiae na psalterz polski
!!!OTL: CXIV. Na ten czas, gdy Żydowie dostawszy swobody
!!!PDT: 1580
!!!AGN: Sacred
!!!SMS-siglum: PL-Wn
!!!SMS-shelfmark: SD XVI.Qu.273
!!!SMS-shelfwork: 114 G
!!!NIFC-rismid:
!!!ONB-nifc:
**kern	**text	**kern	**text	**kern	**text	**kern	**text
*part4	*part4	*part3	*part3	*part2	*part2	*part1	*part1
*staff4	*staff4	*staff3	*staff3	*staff2	*staff2	*staff1	*staff1
*clefF4	*	*clefC3	*	*clefC3	*	*clefC1	*
*k[b-]	*	*k[b-]	*	*k[b-]	*	*k[b-]	*
*a:	*	*a:	*	*a:	*	*a:	*
*M4/2	*	*M4/2	*	*M4/2	*	*M4/2	*
*met(C|)	*	*met(C|)	*	*met(C|)	*	*met(C|)	*
=1	=1	=1	=1	=1	=1	=1	=1
*>A	*	*	*	*	*	*	*
1AA	Na	1c	Na	1e	Na	1a	Na
1AA	ten	1c	ten	1e	ten	1cc	ten
=2-	=2	=2	=2	=2	=2	=2	=2
2D/	cӡás/	2d	cӡás/	2f	cӡás/	2a	cӡás/
2A	gdy	2c/	gdy	2e	gdy	2a	gdy
2.A	ʒ̇y-	2.c/	ʒ̇y-	2e	ʒ̇y-	2a	ʒ̇y-
.	.	.	.	2e	-do-	2a	-do-
4G	-do-	4B-	-do-	.	.	.	.
=3-	=3	=3	=3	=3	=3	=3	=3
4F	-wie	2A	-wie	2.f	-wie	1a	-wie
4E	.	.	.	.	.	.	.
4D/	.	2d	.	.	.	.	.
4C	.	.	.	4e	.	.	.
1BB-	doʃ_taw-	2.d	doʃ-	4d	doʃ	2.b-	doʃ-
.	.	.	.	4e	.	.	.
.	.	.	.	4f	.	.	.
.	.	4c/	-taw-	4e	taw-	4a	-taw-
=4-	=4	=4	=4	=4	=4	=4	=4
2BB-	-ʃᴣy	2B-	-ʃᴣy	2d	-ʃᴣy	2g/	-ʃᴣy
2FF	ʃwo-	2A	ʃwo-	2c/	ʃwo-	1f	ʃwo-
1C	-bo	1G	-bo-	2.c/	-bo	.	.
.	.	.	.	.	.	2e	-bo-
.	.	.	.	4B-	.	.	.
=5-	=5	=5	=5	=5	=5	=5	=5
2D/	dy/	2F	-dy/	2A	dy/	2f	-dy/
2E	Byʃ-	2c/	Byʃ-	2e	Byʃ-	2g/	Byʃ-
2F	-tré	2.f	-tré	2a	-tré	2a	-tré
2F	Ni-	.	.	2a	Ni-	2cc	Ni-
.	.	4e	Ni-	.	.	.	.
=6-	=6	=6	=6	=6	=6	=6	=6
1G	-lo-	1d	-lo-	2.g	-lo	1b-	-lo-
.	.	.	.	4f	.	.	.
!!LO:PB:g=original
2A	-wé	2c/	-wé	2e	wé	2a	-wé
1AA	ʒ̇eg	2.A	ʒ̇eg	1e	ʒ̇eg	1a	ʒ̇eg
=7-	=7	=7	=7	=7	=7	=7	=7
.	.	.	.	.	.	.	.
.	.	4B-	.	.	.	.	.
2AA	ná-	2c/	ná-	1a	ná-	2a	ná-
1BB-	-li	1d	-li	.	.	1dd	-li
.	.	.	.	4g	-li	.	.
.	.	.	.	4f	.	.	.
=8-	=8	=8	=8	=8	=8	=8	=8
1BB-	wo-	1d	wo-	4g	wo	1dd	wo-
.	.	.	.	2a	.	.	.
.	.	.	.	4g	.	.	.
2AA	-dy:	2e	-dy:	2a	dy:	2cc#X	-dy:
2AA	Wiel-	2c#/X	Wiel-	2g	Wiel-	2a	Wiel-
=9-	=9	=9	=9	=9	=9	=9	=9
2D/	-ťa	2d	-ťa	2d	-ťa	2f#X	-ťa
2D/	tám	2A	tám	2d	tám	2f#	tám
1C	ná	1c	ná	1e	ná	1g	ná
=10-	=10	=10	=10	=10	=10	=10	=10
2AA	nich	2c/	nich	2.e	nich	2a	nich
2C	łáʃ-	2c/	łáʃ	.	.	2g/	łáʃ-
.	.	.	.	4f	łáʃ-	.	.
4GG	-ťá	4B-	ťá	2g	-ťá	2b-	-ťá
4AA	.	4c/	.	.	.	.	.
4BB-	páń	2d	páń	4d	páń	2b-	páń-
4C	.	.	.	4e	.	.	.
=11-	=11	=11	=11	=11	=11	=11	=11
1D	ʃťa	2A	ʃťa	2.f	ʃťa	1a	-ʃťa
.	.	2A	.	.	.	.	.
.	.	.	.	4e	.	.	.
2BB-	sye	1B-	sye_ӡná-	2d	sye	2g/	sye
2BB-	ӡná-	.	.	2d	ӡná-	1f	ӡná
=12-	=12	=12	=12	=12	=12	=12	=12
1C	-cӡy-	2A	.	2.c/	.	.	.
.	.	2G	cӡy-	.	.	2e	cӡy-
.	.	.	.	4B-	cӡy-	.	.
!!LO:PB:g=original
2D	-łá/	2F	-łá/	2A	-łá/	2f	-łá/
2E	A	2c/	A	2e	A	2g/	A
=13-	=13	=13	=13	=13	=13	=13	=13
2F	nie-	2c/	nie-	2c/	nie-	2a	nie-
2D/	-po-	2d	-po-	2f	-po-	2a	-po-
2AA	-dob	2c/	-dob	2e	-dob	1a	-dob-
2D/	.	4d	.	4f	.	.	.
.	.	4c	.	4e	.	.	.
=14-	=14	=14	=14	=14	=14	=14	=14
2GG	na	4B-	na	4d	na	2g/	-na
.	.	4A	.	4c	.	.	.
2BB-	ťu	2B-	ťu	2d	ťu	2d	ťu
2FF	wie	2A	wie	2c/	wie	2f	wie-
2GG	.	4G	.	2B-	.	4e	.
.	.	4F	.	.	.	4d	.
=15-	=15	=15	=15	=15	=15	=15	=15
2AA	rӡe	2E	rӡe	2A	rӡe	2c	rӡe
2BB-	śi	2D	śi	2G	śi	1d	śi
1AA	.	1E	.	1A	.	.	.
.	.	.	.	.	.	2c	.
=16-	=16	=16	=16	=16	=16	=16	=16
!	!	!'ogonek po lewej stronie'	!	!'ogonek po lewej stronie'	!	!	!
!!LO:N:vis=00
0D	łá.	0F#X/	łá.	0A/	łá.	0d/	łá.
=	=	=	=	=	=	=	=
*-	*-	*-	*-	*-	*-	*-	*-
!!!RDF**kern: l = terminal long
!!!system-decoration: s1,s2,s3,s4
!!!ENC:Anna Matuszewska
!!!END:2020-02-19
!!!URL-scan: https://polona.pl/item/melodiae-na-psalterz-polski,Nzk3MTM4ODQ/264 Scan on Polona
!!!IIIF: https://polona.pl/iiif/item/Nzk3MTM4ODQ/manifest.json
